X: 1
T:Slow March  " "
M:6/8
L:1/8
Q:80
C:/JHP
S:THE FLOWER OF SCOTLAND
K:HP
|: f|
{g}f2e{Gdc}d3|
{e}A3-A2{g}A|
{Gdc}d2f{gef}e3|  !
{A}e2d{g}d2e|
M:6/8 |:
d|  !
{g}d2c{gBd}B3|
{g}f3-f2{g}f|
{gBd}B2d{gcd}c3|  !
{G}c2B{g}B2c| |
{gfg}f3-f2{e}f|
g{a}fg{ag}a3|  !
{Gdc}d2{e}A{gef}e2{A}e|
{g}ede{g}f2g| |
{Gdc}d3-d2{g}d|  !
{g}ede{gfg}f3|
{e}f2{g}f{g}c2{GdG}c|
{g}cBc{Gdc}d2e| |  !
{afg}f2e{Gdc}d3|
{e}A3-A2f|
g{a}fg{ag}a3|  !
{Gdc}d3-d2f| |
{g}d2c{gBd}B3|
{g}f3-f2d|  !
{g}ede|
{g}f3-f2d| |
{gf}gfe{gfg}f2e|  !
{Gdc}d3-d2{c}d|
{g}c2e{Gdc}d3|
-d3{gdc}d2:| |  !
{gef}edc{Gdc}d2g|
{fg}f3-f2{e}f|
{gef}e2g{fg}f3|  !
-f3{e}f2:|
